X: 10
T:Girl I left Behind Me, The
T:Brighton Camp
M:2/4
L:1/8
K:G
g/f/|"G"ed/c/ BG|"C"AG ED|"G"GG G/A/B/c/|"D7"d2 Bg/f/| \
"G"ed/c/ BA|"C"BG EG|"D7"F/G/A DE/F/|"G"G2G:|
d/c/|"G"Bd ef|gd BG|Bd ef|"C"g2 "D7"fg/f/| \
"G"ed/c/ BG|"C"AG EG|"D7"FA DE/F/|"G"G2G:|

%%newpage
